src/assets/duotone/LocationSlash.svg

<svg width="24" height="24" viewBox="0 0 24 24"  xmlns="http://www.w3.org/2000/svg">
<path opacity="0.4" d="M18.8901 5.11L5.79011 18.21C3.90011 15.64 2.54011 12.36 3.38011 8.69C3.90011 6.38 5.18011 4.71 6.76011 3.61C8.34011 2.52 10.2301 2 12.0001 2C14.4401 2 17.1201 2.98 18.8901 5.11Z" />
<path opacity="0.4" d="M15.7801 20.98C14.7201 22 13.3601 22.51 12.0001 22.51C10.6401 22.51 9.28014 21.99 8.22014 20.97C7.86014 20.63 7.50014 20.25 7.14014 19.86L20.0401 6.95996C20.2901 7.49996 20.4801 8.06996 20.6201 8.69996C21.7901 13.86 18.6301 18.22 15.7801 20.98Z" />
<path d="M21.7701 2.23006C21.4701 1.92006 20.9901 1.92006 20.6901 2.23006L15.0201 7.90006L14.3001 8.62006C13.7601 7.88006 12.9101 7.44006 12.0001 7.44006C10.4201 7.44006 9.13006 8.73006 9.13006 10.3101C9.13006 11.2101 9.57006 12.0601 10.3101 12.6101L2.23006 20.6901C1.92006 20.9901 1.92006 21.4701 2.23006 21.7701C2.38006 21.9201 2.57006 22.0001 2.77006 22.0001C2.97006 22.0001 3.16006 21.9201 3.31006 21.7701L21.7701 3.31006C22.0801 3.01006 22.0801 2.53006 21.7701 2.23006Z" />
</svg>

<?xml version="1.0" encoding="UTF-8"?>
<svg width="24" height="24" viewBox="0 0 24 24" xmlns="http://www.w3.org/2000/svg">
 <path d="m18.89 5.11-13.1 13.1c-1.89-2.57-3.25-5.85-2.41-9.52 0.52-2.31 1.8-3.98 3.38-5.08 1.58-1.09 3.47-1.61 5.24-1.61 2.44 0 5.12 0.98 6.89 3.11z" opacity=".4"/>
 <path d="m15.78 20.98c-1.06 1.02-2.42 1.53-3.78 1.53s-2.72-0.52-3.78-1.54c-0.36-0.34-0.72-0.72-1.08-1.11l12.9-12.9c0.25 0.54 0.44 1.11 0.58 1.74 1.17 5.16-1.99 9.52-4.84 12.28z" opacity=".4"/>
 <path d="m21.77 2.2301c-0.3-0.31-0.78-0.31-1.08 0l-6.39 6.39c-0.54-0.74-1.39-1.18-2.3-1.18-1.58 0-2.87 1.29-2.87 2.87 0 0.9 0.44 1.75 1.18 2.3l-8.08 8.08c-0.31 0.3-0.31 0.78 0 1.08 0.15 0.15 0.34 0.23 0.54 0.23s0.39-0.08 0.54-0.23l18.46-18.46c0.31-0.3 0.31-0.78 0-1.08z"/>
</svg>
